!!!OTL@@FUR: Nina, nana bambinutai
!!!OTL@IT: Ninna nanna bambinella
!!!OTL@EN: Rock a bye, little baby
**kern
*clefG2
*k[b-]
*F:
*M3/4
*MM70
*>[A,A]
*>A
8.f
16g
=1
4a
4f
8.b-
16a
=2
4g
4e
8.e
16f
=3
4g
4e
8.a
16g
=4
4f
4r
8.f
16g
=5
4a
4f
8.b-
16a
=6
4g
4e
8.e
16f
=7
4g
4b-
8.a
16g
=8
2f
==:|!
*-
!!!ARE: Friuli
!!!ENC: Kelly Leistikow
!!!END: 2002/03/07
!!!ref: @{OTL@@FUR}/@{OTL@EN}
